symbols/web/explore_off/materialsymbolsrounded/explore_off_gradN25fill1_20px.svg

<svg xmlns="http://www.w3.org/2000/svg" height="20" width="20"><path d="M16.833 18q-.25.25-.573.25-.322 0-.572-.25l-1.23-1.208q-.979.666-2.125 1-1.145.333-2.333.333-1.688 0-3.167-.646-1.479-.646-2.583-1.739-1.104-1.094-1.74-2.573-.635-1.479-.635-3.167 0-1.208.333-2.344.334-1.135 1-2.156l-1.25-1.229q-.229-.229-.229-.563 0-.333.25-.583.25-.25.573-.24.323.011.573.261l13.729 13.729q.229.208.229.542 0 .333-.25.583Zm-.041-3.5-4.438-4.458 1.75-3.709q.104-.208-.052-.364-.156-.157-.364-.052l-3.73 1.729-4.437-4.458q.958-.626 2.083-.969Q8.729 1.875 10 1.875q1.688 0 3.167.635 1.479.636 2.583 1.73 1.104 1.093 1.74 2.573.635 1.479.635 3.187 0 1.271-.354 2.396t-.979 2.104Zm-10.5-.396 3.77-1.729-2.416-2.437-1.771 3.77q-.104.209.052.354.156.146.365.042Z"/></svg>

<svg xmlns="http://www.w3.org/2000/svg" height="20" width="20"><path d="M16.833 18Q16.583 18.25 16.26 18.25Q15.938 18.25 15.688 18L14.458 16.792Q13.479 17.458 12.333 17.792Q11.188 18.125 10 18.125Q8.312 18.125 6.833 17.479Q5.354 16.833 4.25 15.74Q3.146 14.646 2.51 13.167Q1.875 11.688 1.875 10Q1.875 8.792 2.208 7.656Q2.542 6.521 3.208 5.5L1.958 4.271Q1.729 4.042 1.729 3.708Q1.729 3.375 1.979 3.125Q2.229 2.875 2.552 2.885Q2.875 2.896 3.125 3.146L16.854 16.875Q17.083 17.083 17.083 17.417Q17.083 17.75 16.833 18ZM16.792 14.5 12.354 10.042 14.104 6.333Q14.208 6.125 14.052 5.969Q13.896 5.812 13.688 5.917L9.958 7.646L5.521 3.188Q6.479 2.562 7.604 2.219Q8.729 1.875 10 1.875Q11.688 1.875 13.167 2.51Q14.646 3.146 15.75 4.24Q16.854 5.333 17.49 6.813Q18.125 8.292 18.125 10Q18.125 11.271 17.771 12.396Q17.417 13.521 16.792 14.5ZM6.292 14.104 10.062 12.375 7.646 9.938 5.875 13.708Q5.771 13.917 5.927 14.062Q6.083 14.208 6.292 14.104Z"/></svg>
